X: 129019
T: The HARMONICA
%R: jig
B: James Kerr "Merry Melodies" v.1 p.29 s.0 #19
Z: 2016 John Chambers <jc:trillian.mit.edu>
M: 6/8
L: 1/8
K: G
ud |:\
vg2vd uB2ug | e2c A2G | FGA DEF |[1 G2B d2d :|[2 G3 G2 ||\
ud |\
vc2va ua2uc | B2g g2B | ABc def | g2a b2d |\
c2a a2c | B2g g2b |
agf ed^c | dFG ABc |\
dBg ecg | dBg ecg | dcB BAG | FAA ABc |\
dBg ecg | dBg ecg | dcB AGF | GBd g2 |]

%%sep 1 1 500
%%sep 1 1 500

